icons/editor/files.svg

<svg width="32" height="32" viewBox="0 0 32 32" fill="none" xmlns="http://www.w3.org/2000/svg">
<path fill-rule="evenodd" clip-rule="evenodd" d="M10 4C10 2.89543 10.8954 2 12 2H19.5858C20.1162 2 20.6249 2.21071 21 2.58579L27.4142 9C27.7893 9.37507 28 9.88378 28 10.4142V22C28 23.1046 27.1046 24 26 24H12C10.8954 24 10 23.1046 10 22V4ZM18 4H12V22H26V12H20C18.8954 12 18 11.1046 18 10V4ZM20 4.41421L25.5858 10H20V4.41421ZM6 8C4.89543 8 4 8.89543 4 10V28C4 29.1046 4.89543 30 6 30H20C21.1046 30 22 29.1046 22 28V26H20V28H6V10H8V8H6Z" fill="black"/>
</svg>

<svg width="32" height="32" viewBox="0 0 32 32" xmlns="http://www.w3.org/2000/svg">
    <path fill-rule="evenodd" d="M10 4a2 2 0 012-2h7.586A2 2 0 0121 2.586L27.414 9A2 2 0 0128 10.414V22a2 2 0 01-2 2H12a2 2 0 01-2-2V4zm8 0h-6v18h14V12h-6a2 2 0 01-2-2V4zm2 .414L25.586 10H20V4.414zM6 8a2 2 0 00-2 2v18a2 2 0 002 2h14a2 2 0 002-2v-2h-2v2H6V10h2V8H6z"/>
</svg>
